Numix-GalliumOS/22/status/pamac-download.svg

<?xml version="1.0" encoding="UTF-8" standalone="no"?>
<svg
   xmlns:dc="http://purl.org/dc/elements/1.1/"
   xmlns:cc="http://creativecommons.org/ns#"
   xmlns:rdf="http://www.w3.org/1999/02/22-rdf-syntax-ns#"
   xmlns:svg="http://www.w3.org/2000/svg"
   xmlns="http://www.w3.org/2000/svg"
   xmlns:sodipodi="http://sodipodi.sourceforge.net/DTD/sodipodi-0.dtd"
   xmlns:inkscape="http://www.inkscape.org/namespaces/inkscape"
   width="22"
   height="22"
   viewBox="0 0 22 22"
   id="svg2"
   version="1.1"
   inkscape:version="0.91 r"
   sodipodi:docname="pamac-download.svg">
  <metadata
     id="metadata10">
    <rdf:RDF>
      <cc:Work
         rdf:about="">
        <dc:format>image/svg+xml</dc:format>
        <dc:type
           rdf:resource="http://purl.org/dc/dcmitype/StillImage" />
        <dc:title />
      </cc:Work>
    </rdf:RDF>
  </metadata>
  <defs
     id="defs8" />
  <sodipodi:namedview
     pagecolor="#ffffff"
     bordercolor="#666666"
     borderopacity="1"
     objecttolerance="10"
     gridtolerance="10"
     guidetolerance="10"
     inkscape:pageopacity="0"
     inkscape:pageshadow="2"
     inkscape:window-width="1366"
     inkscape:window-height="747"
     id="namedview6"
     showgrid="true"
     inkscape:zoom="8.0000004"
     inkscape:cx="-3.5489182"
     inkscape:cy="-8.0385528"
     inkscape:window-x="0"
     inkscape:window-y="21"
     inkscape:window-maximized="1"
     inkscape:current-layer="svg2">
    <inkscape:grid
       type="xygrid"
       id="grid4138" />
  </sodipodi:namedview>
  <path
     style="fill:#c28e5c"
     d="M 7 3 L 3 7 L 10 7 L 10 3 L 7 3 z M 12 3 L 12 7 L 19 7 L 15 3 L 12 3 z M 3 9 L 3 19 L 13.171875 19 L 10.171875 16 L 14.714844 16 L 14.714844 13 L 19 13 L 19 9 L 3 9 z "
     id="path4-6-7" />
  <path
     inkscape:connector-curvature="0"
     style="fill:#4db147;fill-opacity:1"
     d="m 17.999982,21 3,-3 -1.714285,0 0,-3 -2.57143,0 0,3 -1.714285,0 z"
     id="path4139" />
</svg>

<svg xmlns="http://www.w3.org/2000/svg" viewBox="0 0 22 22">
 <path d="m 7 3 l -4 4 l 7 0 l 0 -4 l -3 0 z m 5 0 l 0 4 l 7 0 l -4 -4 l -3 0 z m -9 6 l 0 10 l 10.172 0 l -3 -3 l 4.543 0 l 0 -3 l 4.285 0 l 0 -4 l -16 0 z" style="fill:#c28e5c"/>
 <path d="m 18 21 3 -3 -1.714 0 0 -3 -2.571 0 0 3 -1.714 0 z" style="fill:#4db147;fill-opacity:1"/>
</svg>
